files/icons/jump.svg

<svg width="67" height="107" viewBox="0 0 67 107" fill="none" xmlns="http://www.w3.org/2000/svg">
<path d="M60.6304 65.7491C62.5269 55.0651 64.2126 44.2903 64.3632 33.4247C64.4535 25.162 63.8815 15.84 58.3125 9.21164C53.9777 4.03611 47.6561 1.43321 41.2141 1.13054C31.4006 -1.77502 23.6943 1.16081 15.8073 7.1838C8.64285 12.662 5.06062 19.5627 4.30805 28.5518C3.28455 40.8097 4.88 53.5215 6.89689 65.628C4.21774 65.8096 1.05694 66.3544 0.214064 68.5638C-0.237478 69.7745 0.0936542 72.8314 0.575299 73.921C1.35797 75.6462 3.01363 75.5554 3.8565 76.8568C5.15092 78.8847 3.94681 84.6958 3.70599 86.7842C3.34476 89.9319 3.16414 92.9888 3.49527 96.1364C3.91671 99.9803 4.39835 105.549 8.91378 106.639C22.3998 109.877 17.9747 90.4464 16.1686 83.8483C15.8073 82.5166 15.2354 81.1849 15.0246 79.7926C14.1818 74.7684 14.9042 76.312 16.4094 73.4065C17.2523 71.8023 17.4329 70.8641 17.1619 68.8665C16.4997 64.3871 13.4894 65.4464 9.54594 65.4767C9.48573 65.4767 9.39542 65.4767 9.30511 65.4767C8.0408 57.9404 7.16781 50.3738 6.77648 42.7467C6.41524 35.9368 5.9035 28.4913 7.86018 21.863C7.92038 21.6511 8.01069 21.4998 8.0709 21.2879C6.23463 28.461 6.77648 36.421 9.78676 43.2007C15.9879 57.1232 32.123 59.9682 45.2178 54.3387C51.4491 51.6753 57.289 47.8617 59.5166 41.1426C61.9549 33.7576 62.3162 23.8908 59.2156 16.6874C57.7405 13.2673 55.4527 10.2407 52.7134 7.7286C55.3624 9.54458 57.59 11.9053 59.0049 14.8412C62.5871 22.317 62.1957 31.185 61.7141 39.2358C61.2024 48.0736 59.7574 56.7903 58.2222 65.4767V65.507C54.941 65.2043 51.3888 65.0832 50.3654 68.5033C49.9138 69.9561 49.6429 72.3169 50.3051 73.7091C51.5093 76.191 52.6231 75.0106 52.7134 78.0675C52.9542 84.6655 43.532 105.519 55.7839 106.669C67.6745 107.789 64.8448 90.9912 63.8213 83.5457C63.5203 81.427 62.7677 78.3701 64.0019 76.312C64.4836 75.5251 65.5673 75.1619 66.0188 74.375C66.8316 73.0735 67.0724 71.076 66.9821 69.5929C66.8316 65.8096 63.8213 66.0518 60.6304 65.7491ZM14.5731 68.0493C16.3191 69.4416 14.0313 72.2866 13.4292 73.4367C12.2251 75.7672 11.8639 75.737 12.3154 78.6425C13.1282 83.8786 14.7838 88.812 15.4762 94.1389C15.8073 96.5904 16.9512 100.041 15.3558 102.311C13.8205 104.52 10.9909 104.732 8.91378 103.582C4.81979 101.342 5.51216 92.898 5.9035 88.7212C6.23463 85.059 7.49895 80.3677 6.29483 76.7357C5.60247 74.6474 5.33154 75.6462 3.94681 74.0421C-0.237477 69.1086 5.66267 68.1401 9.54594 67.9585C10.7199 67.9283 13.6098 67.2624 14.5731 68.0493ZM35.7956 3.70318C38.2941 4.03611 40.7927 4.7625 43.231 6.00342C50.9072 9.90777 55.3022 16.1124 54.6399 24.9804C54.068 33.001 50.3653 41.415 42.1473 43.9876C35.2537 46.1365 24.2963 45.8641 20.0518 38.9634C16.5298 33.2128 16.8308 24.0724 19.0283 17.9586C21.6774 10.5736 28.0592 4.7625 35.7956 3.70318ZM57.6803 38.8424C54.1282 52.1898 37.1502 56.2152 25.2897 53.6728C11.4123 50.6765 7.19791 33.6063 10.5393 21.2879C12.9777 12.3593 19.8712 5.94289 27.9689 4.03611C24.7178 5.73102 21.858 8.15233 19.7207 11.2698C11.7735 22.9223 13.0078 44.1995 29.2332 46.984C36.488 48.2249 45.0371 47.1656 50.4256 41.6874C55.7839 36.2394 57.8609 27.2504 56.9579 19.8048C56.8676 18.9877 56.6869 18.1705 56.4762 17.4138C59.2758 23.8605 59.637 31.5179 57.6803 38.8424ZM62.7677 74.1934C60.9314 76.766 60.7809 77.1595 61.0819 80.7914C61.4733 85.2406 65.5071 106.034 56.2655 104.278C47.4153 102.583 54.9109 83.7878 55.1818 78.0977C55.2721 76.0094 55.0915 75.737 54.369 74.2237C53.6466 72.7406 50.9674 70.3193 53.0144 68.2915C53.9476 67.3532 58.5834 68.0191 59.8477 68.1401C64.8147 68.7757 65.4469 70.4404 62.7677 74.1934Z" fill="#2B3541"/>
</svg>

<svg xmlns="http://www.w3.org/2000/svg" width="67" height="107" fill="none" viewBox="0 0 67 107"><path fill="#2b3541" d="M60.63 65.75c1.897-10.685 3.583-21.46 3.733-32.325.09-8.263-.481-17.585-6.05-24.213-4.335-5.176-10.657-7.779-17.099-8.081-9.813-2.906-17.52.03-25.407 6.053C8.643 12.662 5.061 19.563 4.308 28.552c-1.023 12.258.572 24.97 2.589 37.076-2.68.182-5.84.726-6.683 2.936-.451 1.21-.12 4.267.361 5.357.783 1.725 2.439 1.634 3.282 2.936 1.294 2.028.09 7.839-.151 9.927-.361 3.148-.542 6.205-.21 9.352.42 3.844.902 9.413 5.418 10.503 13.486 3.238 9.06-16.193 7.255-22.79-.362-1.332-.934-2.664-1.144-4.056-.843-5.025-.12-3.481 1.384-6.387.843-1.604 1.024-2.542.753-4.54-.662-4.479-3.673-3.42-7.616-3.39h-.24c-1.265-7.536-2.138-15.102-2.53-22.73-.36-6.81-.872-14.255 1.084-20.883.06-.212.15-.363.21-.575C6.236 28.46 6.777 36.42 9.788 43.2c6.2 13.922 22.336 16.767 35.43 11.138 6.232-2.664 12.072-6.477 14.3-13.196 2.438-7.385 2.8-17.252-.301-24.456-1.476-3.42-3.763-6.446-6.503-8.958 2.65 1.816 4.877 4.176 6.292 7.112 3.582 7.476 3.19 16.344 2.71 24.395-.513 8.838-1.958 17.554-3.493 26.24v.031c-3.281-.303-6.833-.424-7.857 2.996-.451 1.453-.722 3.814-.06 5.206 1.204 2.482 2.318 1.302 2.408 4.358.241 6.599-9.181 27.452 3.07 28.602 11.891 1.12 9.062-15.678 8.038-23.123-.3-2.119-1.053-5.176.18-7.234.483-.787 1.566-1.15 2.018-1.937.813-1.302 1.053-3.299.963-4.782-.15-3.783-3.16-3.541-6.352-3.844m-46.057 2.3c1.746 1.392-.542 4.237-1.144 5.387-1.204 2.33-1.565 2.3-1.114 5.206.813 5.236 2.469 10.169 3.161 15.496.331 2.451 1.475 5.902-.12 8.172-1.536 2.209-4.365 2.421-6.442 1.271-4.094-2.24-3.402-10.684-3.01-14.86.33-3.663 1.595-8.354.39-11.986-.692-2.089-.962-1.09-2.347-2.694-4.184-4.933 1.716-5.902 5.599-6.084 1.174-.03 4.064-.696 5.027.091M35.796 3.702a23 23 0 0 1 7.435 2.3c7.676 3.905 12.071 10.11 11.409 18.977-.572 8.021-4.275 16.435-12.493 19.008-6.893 2.148-17.85 1.876-22.095-5.025-3.522-5.75-3.221-14.89-1.024-21.004 2.65-7.385 9.031-13.196 16.768-14.256m21.884 35.14c-3.552 13.347-20.53 17.372-32.39 14.83-13.878-2.997-18.092-20.067-14.75-32.385 2.438-8.929 9.331-15.345 17.429-17.252-3.251 1.695-6.111 4.116-8.248 7.234-7.947 11.652-6.713 32.93 9.512 35.714 7.255 1.24 15.804.182 21.193-5.297 5.358-5.448 7.435-14.437 6.532-21.882a15 15 0 0 0-.482-2.391c2.8 6.446 3.161 14.104 1.204 21.428m5.088 35.35c-1.837 2.573-1.987 2.966-1.686 6.598.391 4.45 4.425 25.243-4.816 23.487-8.85-1.695-1.355-20.49-1.084-26.18.09-2.089-.09-2.361-.813-3.874-.722-1.483-3.402-3.905-1.355-5.933.934-.938 5.57-.272 6.834-.15 4.967.635 5.599 2.3 2.92 6.052"/></svg>
